packages/kaspersky-hexa-ui-icons/src/iconsSVGs/24/Cloud.svg

<svg width="24" height="24" viewBox="0 0 24 24" fill="none" xmlns="http://www.w3.org/2000/svg">
<path fill-rule="evenodd" clip-rule="evenodd" d="M5.71576 9.62107C6.68529 6.71909 9.24265 5 12 5C14.2603 5 16.3284 6.11825 17.5995 8.12214C19.9942 8.56536 22 10.714 22 13.5C22 16.5376 19.5376 19 16.5 19H6.71992C4.31464 19 2 17.062 2 14.5C2 13.1484 2.41871 11.9448 3.21804 11.0459C3.8681 10.3149 4.73057 9.83012 5.71576 9.62107ZM12 7C9.9623 7 8.03895 8.34926 7.47296 10.747L7.30491 11.4589L6.57551 11.5144C5.76295 11.5762 5.13781 11.8967 4.71262 12.3749C4.28511 12.8557 4 13.564 4 14.5C4 15.804 5.25921 17 6.71992 17H16.5C18.433 17 20 15.433 20 13.5C20 11.579 18.5173 10.1672 16.9095 10.0464L16.3645 10.0054L16.1047 9.52457C15.2116 7.8719 13.6763 7 12 7Z" fill="black"/>
</svg>

<svg xmlns="http://www.w3.org/2000/svg" width="24" height="24" fill="none" viewBox="0 0 24 24"><path fill="#000" fill-rule="evenodd" d="M5.7158 9.621C6.6853 6.719 9.2426 5 12 5c2.2603 0 4.3284 1.1182 5.5995 3.1221C19.9942 8.5654 22 10.714 22 13.5c0 3.0376-2.4624 5.5-5.5 5.5H6.72C4.3145 19 2 17.062 2 14.5c0-1.3516.4187-2.5552 1.218-3.4541.6501-.731 1.5126-1.2158 2.4978-1.4248M12 7c-2.0377 0-3.961 1.3493-4.527 3.747l-.168.712-.7295.0554c-.8125.0618-1.4377.3823-1.8629.8605C4.2851 12.8557 4 13.564 4 14.5 4 15.804 5.2592 17 6.72 17h9.78c1.933 0 3.5-1.567 3.5-3.5 0-1.921-1.4827-3.3328-3.0905-3.4536l-.545-.041-.2598-.4808C15.2116 7.8719 13.6763 7 12 7"/></svg>
